TV/Source/Nick Jr Too.svg

<svg height="56.82811" width="319.98651" xmlns="http://www.w3.org/2000/svg"><g fill="#f57c14"><path d="m0 0c-.972.001-1.863-.398-2.499-1.035-.637-.635-1.035-1.527-1.035-2.499v-3.228h2.683v1.413 1.76c.001.387.093.717.249.973.158.253.363.402.602.403.239-.001.444-.15.602-.403.156-.256.248-.586.249-.973v-3.173h2.683v3.228c0 .972-.398 1.864-1.035 2.499-.636.637-1.527 1.036-2.499 1.035" transform="matrix(5.4199937 0 0 -5.4199937 19.154258 18.501694)"/><path d="m0 0c .27.27.437.643.437 1.055s-.167.784-.437 1.054-.643.436-1.055.436c-.411 0-.784-.166-1.054-.436s-.437-.642-.437-1.054.167-.785.437-1.055l.329-.33c.55-.549.589-.695.066-1.218l-.299-.299c-.246-.246-.397-.585-.397-.959v-4.824h2.711v4.824c0 .374-.152.713-.397.959l-.299.299c-.523.523-.484.669.066 1.219z" transform="matrix(5.4199937 0 0 -5.4199937 53.953868 13.793884)"/><path d="m0 0c-.159-.292-.363-.465-.602-.465s-.443.173-.602.465c-.156.295-.248.677-.249 1.124.001.446.093.828.249 1.124.159.291.363.464.602.465.239-.001.443-.174.602-.465.116-.22.196-.486.23-.792h2.686c-.079.841-.455 1.604-1.019 2.167-.636.637-1.528 1.035-2.499 1.035s-1.863-.398-2.499-1.035c-.637-.636-1.036-1.528-1.035-2.499-.001-.972.398-1.864 1.035-2.499.49-.489 1.342-1.036 2.499-1.035.87-.001 1.675.319 2.29.843.449.381 1.114 1.145 1.228 2.359h-2.686c-.034-.306-.114-.573-.23-.792" transform="matrix(5.4199937 0 0 -5.4199937 80.000738 43.765914)"/><path d="m0 0c0 .09-.027.173-.071.244l-1.469 2.222 1.017 1.847c.376.638.164 1.46-.474 1.836s-1.46.164-1.837-.474l-1.214-2.171v1.447c0 .741-.601 1.342-1.342 1.342-.74 0-1.341-.601-1.341-1.342v-5.42h2.683v2.122l1.415-2.121 2.166.001c.258 0 .467.209.467.467" transform="matrix(5.4199937 0 0 -5.4199937 134.27005 52.608084)"/></g><g fill="#4ac3cb"><path d="m0 0c0-1.635-.796-2.691-2.708-2.691h-.074c-.668 0-1.368.177-1.805.458-.759.489-1.254 1.292-.754 2.14.463.787 2.085.932 2.325-.437.084-.479.338-.417.338.025l.001 3.257c0 .973.601 1.572 1.341 1.572.74-.001 1.34-.6 1.34-1.34zm-1.336 4.745c.733 0 1.326.594 1.326 1.327s-.593 1.326-1.326 1.326-1.327-.593-1.327-1.326.594-1.327 1.327-1.327" transform="matrix(5.4199937 0 0 -5.4199937 164.81117 41.938834)"/><path d="m0 0v3.608c0 .261.163.7.465.817.308.119.589-.018.927-.144 1.112-.424 1.978.137 2.112.864.135.727-.346 1.426-1.073 1.561-.893.167-1.523-.114-2.253-.677-.001 0-.001-.001-.002-.001-.052-.04-.19-.16-.238-.2-.172.542-.679.935-1.277.935-.74 0-1.34-.6-1.34-1.339v-5.424z" transform="matrix(5.4199937 0 0 -5.4199937 182.92425 55.159274)"/><path d="m0 0c .733 0 1.326.594 1.326 1.327s-.593 1.326-1.326 1.326c-.732 0-1.327-.593-1.327-1.326s.595-1.327 1.327-1.327" transform="matrix(5.4199937 0 0 -5.4199937 195.32194 55.556024)"/></g><g fill="#6abd46"><path d="m219.125 7.031254c-3.97285 0-7.1696 3.214685-7.1875 7.1875-.008 1.729537-.0243 2.862876-.0312 4.375-3.48887.509064-6.15625 3.467148-6.15625 7.09375 0 3.616114 2.65087 6.575472 6.125 7.09375-.002 2.867779-.01 5.528368 0 9.15625.0238 8.861658 4.32448 14.59375 14.6875 14.59375h.40625c3.62056 0 7.41271-.976982 9.78125-2.5 4.11378-2.650377 6.80374-6.997595 4.09375-11.59375-2.50946-4.265535-11.3242-5.044972-12.625 2.375-.45528 2.596177-1.81188 2.270637-1.8125-.125-.001-4.602046-.0253-8.164756-.0312-11.8125h3.71875c3.97281-.0179 7.1875-3.21465 7.1875-7.1875 0-3.97286-3.21472-7.16378-7.1875-7.1875h-3.75c-.008-1.494827-.0213-2.609886-.0312-4.28125-.0237-3.972785-3.21464-7.1875-7.1875-7.1875z"/><path d="m0 0c-.127-.234-.29-.371-.481-.372-.192.001-.355.138-.481.372-.125.236-.199.541-.2.899.001.358.075.663.2.899.126.233.289.371.481.373.191-.002.354-.14.481-.373.125-.236.199-.541.2-.899-.001-.357-.075-.663-.2-.899m1.518 2.898c-.508.51-1.222.828-1.999.828-.778 0-1.491-.318-1.999-.828-.509-.508-.828-1.222-.828-1.999 0-.777.319-1.491.828-1.999.047-.047.159-.147.165-.152.492-.42 1.137-.676 1.834-.676.695 0 1.34.255 1.832.675.007.006.12.107.167.153.51.508.828 1.222.828 1.999s-.318 1.491-.828 1.999" transform="matrix(6.7591086 0 0 -6.7591086 304.12964 43.79655)"/><path d="m0 0c-.126-.234-.29-.371-.481-.372-.191.001-.355.138-.481.372-.125.236-.199.541-.2.899.001.358.075.663.2.899.126.233.29.371.481.373.191-.002.355-.14.481-.373.125-.236.199-.541.199-.899 0-.357-.074-.663-.199-.899m1.517 2.898c-.507.51-1.221.828-1.998.828-.778 0-1.491-.318-1.999-.828-.51-.508-.828-1.222-.828-1.999 0-.777.318-1.491.828-1.999h.001-.001c.047-.047.159-.147.165-.152.492-.42 1.137-.676 1.834-.676.695 0 1.34.255 1.832.675.008.006.12.107.166.153.511.508.83 1.222.829 1.999.001.777-.318 1.491-.829 1.999" transform="matrix(6.7591086 0 0 -6.7591086 264.80244 43.79655)"/></g></svg>

<?xml version="1.0" encoding="UTF-8" standalone="no"?>
<!-- Created with Inkscape (http://www.inkscape.org/) -->

<svg
   xmlns:dc="http://purl.org/dc/elements/1.1/"
   xmlns:cc="http://creativecommons.org/ns#"
   xmlns:rdf="http://www.w3.org/1999/02/22-rdf-syntax-ns#"
   xmlns:svg="http://www.w3.org/2000/svg"
   xmlns="http://www.w3.org/2000/svg"
   xmlns:sodipodi="http://sodipodi.sourceforge.net/DTD/sodipodi-0.dtd"
   xmlns:inkscape="http://www.inkscape.org/namespaces/inkscape"
   version="1.1"
   width="319.98651"
   height="56.82811"
   id="svg4689"
   inkscape:version="0.91 r13725"
   sodipodi:docname="Nick Jr Too.svg">
  <metadata
     id="metadata25">
    <rdf:RDF>
      <cc:Work
         rdf:about="">
        <dc:format>image/svg+xml</dc:format>
        <dc:type
           rdf:resource="http://purl.org/dc/dcmitype/StillImage" />
        <dc:title></dc:title>
      </cc:Work>
    </rdf:RDF>
  </metadata>
  <sodipodi:namedview
     pagecolor="#ffffff"
     bordercolor="#666666"
     borderopacity="1"
     objecttolerance="10"
     gridtolerance="10"
     guidetolerance="10"
     inkscape:pageopacity="0"
     inkscape:pageshadow="2"
     inkscape:window-width="1920"
     inkscape:window-height="1017"
     id="namedview23"
     showgrid="false"
     inkscape:zoom="2"
     inkscape:cx="90.12836"
     inkscape:cy="28.414057"
     inkscape:window-x="-8"
     inkscape:window-y="-8"
     inkscape:window-maximized="1"
     inkscape:current-layer="svg4689"
     fit-margin-top="0"
     fit-margin-left="0"
     fit-margin-right="0"
     fit-margin-bottom="0" />
  <defs
     id="defs4691">
    <inkscape:perspective
       sodipodi:type="inkscape:persp3d"
       inkscape:vp_x="0 : 28.414055 : 1"
       inkscape:vp_y="0 : 1000 : 0"
       inkscape:vp_z="215.65343 : 28.414055 : 1"
       inkscape:persp3d-origin="107.82671 : 18.942703 : 1"
       id="perspective27" />
    <clipPath
       id="clipPath650">
      <path
         d="m 276.75,138.723 39.788,0 0,10.486 -39.788,0 0,-10.486 z"
         id="path652"
         inkscape:connector-curvature="0" />
    </clipPath>
  </defs>
  <g
     id="g654"
     transform="matrix(5.4199937,0,0,-5.4199937,19.154258,18.501694)">
    <path
       style="fill:#f57c14;fill-opacity:1;fill-rule:nonzero;stroke:none"
       id="path656"
       d="M 0,0 C -0.972,0.001 -1.863,-0.398 -2.499,-1.035 -3.136,-1.67 -3.534,-2.562 -3.534,-3.534 l 0,-3.228 2.683,0 0,1.413 0,1.76 c 0.001,0.387 0.093,0.717 0.249,0.973 0.158,0.253 0.363,0.402 0.602,0.403 0.239,-10e-4 0.444,-0.15 0.602,-0.403 0.156,-0.256 0.248,-0.586 0.249,-0.973 l 0,-3.173 2.683,0 0,3.228 c 0,0.972 -0.398,1.864 -1.035,2.499 C 1.863,-0.398 0.972,0.001 0,0"
       inkscape:connector-curvature="0" />
  </g>
  <g
     id="g658"
     transform="matrix(5.4199937,0,0,-5.4199937,53.953868,13.793884)">
    <path
       style="fill:#f57c14;fill-opacity:1;fill-rule:nonzero;stroke:none"
       id="path660"
       d="M 0,0 C 0.27,0.27 0.437,0.643 0.437,1.055 0.437,1.467 0.27,1.839 0,2.109 -0.27,2.379 -0.643,2.545 -1.055,2.545 -1.466,2.545 -1.839,2.379 -2.109,2.109 -2.379,1.839 -2.546,1.467 -2.546,1.055 -2.546,0.643 -2.379,0.27 -2.109,0 l 0.329,-0.33 c 0.55,-0.549 0.589,-0.695 0.066,-1.218 L -2.013,-1.847 C -2.259,-2.093 -2.41,-2.432 -2.41,-2.806 l 0,-4.824 2.711,0 0,4.824 c 0,0.374 -0.152,0.713 -0.397,0.959 l -0.299,0.299 c -0.523,0.523 -0.484,0.669 0.066,1.219 L 0,0 Z"
       inkscape:connector-curvature="0" />
  </g>
  <g
     id="g662"
     transform="matrix(5.4199937,0,0,-5.4199937,80.000738,43.765914)">
    <path
       style="fill:#f57c14;fill-opacity:1;fill-rule:nonzero;stroke:none"
       id="path664"
       d="m 0,0 c -0.159,-0.292 -0.363,-0.465 -0.602,-0.465 -0.239,0 -0.443,0.173 -0.602,0.465 -0.156,0.295 -0.248,0.677 -0.249,1.124 0.001,0.446 0.093,0.828 0.249,1.124 0.159,0.291 0.363,0.464 0.602,0.465 C -0.363,2.712 -0.159,2.539 0,2.248 0.116,2.028 0.196,1.762 0.23,1.456 l 2.686,0 C 2.837,2.297 2.461,3.06 1.897,3.623 1.261,4.26 0.369,4.658 -0.602,4.658 -1.573,4.658 -2.465,4.26 -3.101,3.623 -3.738,2.987 -4.137,2.095 -4.136,1.124 c -10e-4,-0.972 0.398,-1.864 1.035,-2.499 0.49,-0.489 1.342,-1.036 2.499,-1.035 0.87,-10e-4 1.675,0.319 2.29,0.843 0.449,0.381 1.114,1.145 1.228,2.359 l -2.686,0 C 0.196,0.486 0.116,0.219 0,0"
       inkscape:connector-curvature="0" />
  </g>
  <g
     id="g666"
     transform="matrix(5.4199937,0,0,-5.4199937,134.27005,52.608084)">
    <path
       style="fill:#f57c14;fill-opacity:1;fill-rule:nonzero;stroke:none"
       id="path668"
       d="m 0,0 c 0,0.09 -0.027,0.173 -0.071,0.244 l -1.469,2.222 1.017,1.847 c 0.376,0.638 0.164,1.46 -0.474,1.836 -0.638,0.376 -1.46,0.164 -1.837,-0.474 l -1.214,-2.171 0,1.447 c 0,0.741 -0.601,1.342 -1.342,1.342 -0.74,0 -1.341,-0.601 -1.341,-1.342 l 0,-5.42 2.683,0 0,2.122 1.415,-2.121 2.166,0.001 0,0 C -0.209,-0.467 0,-0.258 0,0"
       inkscape:connector-curvature="0" />
  </g>
  <g
     id="g670"
     transform="matrix(5.4199937,0,0,-5.4199937,164.81117,41.938834)">
    <path
       style="fill:#4ac3cb;fill-opacity:1;fill-rule:nonzero;stroke:none"
       id="path672"
       d="m 0,0 c 0,-1.635 -0.796,-2.691 -2.708,-2.691 l -0.074,0 c -0.668,0 -1.368,0.177 -1.805,0.458 -0.759,0.489 -1.254,1.292 -0.754,2.14 0.463,0.787 2.085,0.932 2.325,-0.437 0.084,-0.479 0.338,-0.417 0.338,0.025 l 10e-4,3.257 c 0,0.973 0.601,1.572 1.341,1.572 0.74,-10e-4 1.34,-0.6 1.34,-1.34 L 0,0 Z m -1.336,4.745 c 0.733,0 1.326,0.594 1.326,1.327 0,0.733 -0.593,1.326 -1.326,1.326 -0.733,0 -1.327,-0.593 -1.327,-1.326 0,-0.733 0.594,-1.327 1.327,-1.327"
       inkscape:connector-curvature="0" />
  </g>
  <g
     id="g674"
     transform="matrix(5.4199937,0,0,-5.4199937,182.92425,55.159274)">
    <path
       style="fill:#4ac3cb;fill-opacity:1;fill-rule:nonzero;stroke:none"
       id="path676"
       d="M 0,0 0,3.608 C 0,3.869 0.163,4.308 0.465,4.425 0.773,4.544 1.054,4.407 1.392,4.281 2.504,3.857 3.37,4.418 3.504,5.145 3.639,5.872 3.158,6.571 2.431,6.706 1.538,6.873 0.908,6.592 0.178,6.029 0.177,6.029 0.177,6.028 0.176,6.028 c -0.052,-0.04 -0.19,-0.16 -0.238,-0.2 -0.172,0.542 -0.679,0.935 -1.277,0.935 -0.74,0 -1.34,-0.6 -1.34,-1.339 L -2.679,0 0,0 Z"
       inkscape:connector-curvature="0" />
  </g>
  <g
     id="g678"
     transform="matrix(5.4199937,0,0,-5.4199937,195.32194,55.556024)">
    <path
       style="fill:#4ac3cb;fill-opacity:1;fill-rule:nonzero;stroke:none"
       id="path680"
       d="M 0,0 C 0.733,0 1.326,0.594 1.326,1.327 1.326,2.06 0.733,2.653 0,2.653 -0.732,2.653 -1.327,2.06 -1.327,1.327 -1.327,0.594 -0.732,0 0,0"
       inkscape:connector-curvature="0" />
  </g>
  <path
     style="opacity:1;fill:#6abd46;fill-opacity:1;fill-rule:nonzero;stroke:none"
     d="m 219.125,7.031254 c -3.97285,0 -7.1696,3.214685 -7.1875,7.1875 -0.008,1.729537 -0.0243,2.862876 -0.0312,4.375 -3.48887,0.509064 -6.15625,3.467148 -6.15625,7.09375 0,3.616114 2.65087,6.575472 6.125,7.09375 -0.002,2.867779 -0.01,5.528368 0,9.15625 0.0238,8.861658 4.32448,14.59375 14.6875,14.59375 l 0.40625,0 c 3.62056,0 7.41271,-0.976982 9.78125,-2.5 4.11378,-2.650377 6.80374,-6.997595 4.09375,-11.59375 -2.50946,-4.265535 -11.3242,-5.044972 -12.625,2.375 -0.45528,2.596177 -1.81188,2.270637 -1.8125,-0.125 -10e-4,-4.602046 -0.0253,-8.164756 -0.0312,-11.8125 l 3.71875,0 c 3.97281,-0.0179 7.1875,-3.21465 7.1875,-7.1875 0,-3.97286 -3.21472,-7.16378 -7.1875,-7.1875 l -3.75,0 c -0.008,-1.494827 -0.0213,-2.609886 -0.0312,-4.28125 -0.0237,-3.972785 -3.21464,-7.1875 -7.1875,-7.1875 z"
     id="path3866"
     inkscape:connector-curvature="0" />
  <g
     id="g3868"
     transform="matrix(6.7591086,0,0,-6.7591086,304.12964,43.79655)"
     style="opacity:1;fill:#6abd46;fill-opacity:1">
    <path
       inkscape:connector-curvature="0"
       style="fill:#6abd46;fill-opacity:1;fill-rule:nonzero;stroke:none"
       id="path3870"
       d="m 0,0 c -0.127,-0.234 -0.29,-0.371 -0.481,-0.372 -0.192,0.001 -0.355,0.138 -0.481,0.372 -0.125,0.236 -0.199,0.541 -0.2,0.899 10e-4,0.358 0.075,0.663 0.2,0.899 0.126,0.233 0.289,0.371 0.481,0.373 C -0.29,2.169 -0.127,2.031 0,1.798 0.125,1.562 0.199,1.257 0.2,0.899 0.199,0.542 0.125,0.236 0,0 M 1.518,2.898 C 1.01,3.408 0.296,3.726 -0.481,3.726 -1.259,3.726 -1.972,3.408 -2.48,2.898 -2.989,2.39 -3.308,1.676 -3.308,0.899 c 0,-0.777 0.319,-1.491 0.828,-1.999 0,0 0,0 0,0 l 0,0 c 0.047,-0.047 0.159,-0.147 0.165,-0.152 0.492,-0.42 1.137,-0.676 1.834,-0.676 0.695,0 1.34,0.255 1.832,0.675 0.007,0.006 0.12,0.107 0.167,0.153 0.51,0.508 0.828,1.222 0.828,1.999 0,0.777 -0.318,1.491 -0.828,1.999" />
  </g>
  <g
     id="g3872"
     transform="matrix(6.7591086,0,0,-6.7591086,264.80244,43.79655)"
     style="opacity:1;fill:#6abd46;fill-opacity:1">
    <path
       inkscape:connector-curvature="0"
       style="fill:#6abd46;fill-opacity:1;fill-rule:nonzero;stroke:none"
       id="path3874"
       d="m 0,0 c -0.126,-0.234 -0.29,-0.371 -0.481,-0.372 -0.191,0.001 -0.355,0.138 -0.481,0.372 -0.125,0.236 -0.199,0.541 -0.2,0.899 10e-4,0.358 0.075,0.663 0.2,0.899 0.126,0.233 0.29,0.371 0.481,0.373 C -0.29,2.169 -0.126,2.031 0,1.798 0.125,1.562 0.199,1.257 0.199,0.899 0.199,0.542 0.125,0.236 0,0 M 1.517,2.898 C 1.01,3.408 0.296,3.726 -0.481,3.726 -1.259,3.726 -1.972,3.408 -2.48,2.898 -2.99,2.39 -3.308,1.676 -3.308,0.899 c 0,-0.777 0.318,-1.491 0.828,-1.999 0,0 10e-4,0 10e-4,0 l -10e-4,0 c 0.047,-0.047 0.159,-0.147 0.165,-0.152 0.492,-0.42 1.137,-0.676 1.834,-0.676 0.695,0 1.34,0.255 1.832,0.675 0.008,0.006 0.12,0.107 0.166,0.153 0.511,0.508 0.83,1.222 0.829,1.999 C 2.347,1.676 2.028,2.39 1.517,2.898" />
  </g>
</svg>
